Simply white circles/scalable/actions/geany-build.svg

<svg xmlns="http://www.w3.org/2000/svg" xmlns:xlink="http://www.w3.org/1999/xlink" width="24" height="24">
  <path fill="#e6e6e6" stroke="#e6e6e6" stroke-linejoin="round" stroke-width=".49357012" d="M.611328 3.2773438v7.5058592l12.566406 12.996094v.0293l10.179688-5.644535v-7.527343l-10.179688 4.78125v-.06055z"/>
  <path fill="none" stroke="#e6e6e6" stroke-linejoin="round" stroke-width=".49357012" d="M10.536882.40068782s-1.11234.17406611-.850586.80664058c.261756.632575-.612192.9431493-1.810546 1.4179688-2.31217.916143-3.378936 1.0792481-5.279297.3056641-.686907-.2796206-1.984375.3339843-1.984375.3339843L13.2195 15.407524l10.143554-4.754883z"/>
  <path id="a" fill="#e6e6e6" stroke-width=".49357012" d="M5.08343 5.8101629c.763452.7743585 1.780015 1.081417 5.126038-.2399425 3.424629-1.3524012 3.075622-1.5487177 2.31217-2.2249182-.763453-.6762005-1.104088-.996976-3.926327.043625-3.904513 1.439653-4.275332 1.6468762-3.511881 2.4212357z"/>
  <use id="b" width="48" height="48" fill="#e6e6e6" transform="translate(3.585868 3.0103391)" xlink:href="#a"/>
  <use width="48" height="48" fill="#e6e6e6" transform="rotate(-2.947 77.549062 -63.172028)" xlink:href="#b"/>
</svg>

<?xml version="1.0" encoding="UTF-8" standalone="no"?>
<svg
   xmlns:dc="http://purl.org/dc/elements/1.1/"
   xmlns:cc="http://creativecommons.org/ns#"
   xmlns:rdf="http://www.w3.org/1999/02/22-rdf-syntax-ns#"
   xmlns:svg="http://www.w3.org/2000/svg"
   xmlns="http://www.w3.org/2000/svg"
   xmlns:xlink="http://www.w3.org/1999/xlink"
   xmlns:sodipodi="http://sodipodi.sourceforge.net/DTD/sodipodi-0.dtd"
   xmlns:inkscape="http://www.inkscape.org/namespaces/inkscape"
   viewBox="0 0 24 24"
   version="1.1"
   id="svg4"
   sodipodi:docname="geany-build.svg"
   inkscape:version="0.92.3 (2405546, 2018-03-11)"
   width="24"
   height="24"
   style="fill:#000000">
  <metadata
     id="metadata10">
    <rdf:RDF>
      <cc:Work
         rdf:about="">
        <dc:format>image/svg+xml</dc:format>
        <dc:type
           rdf:resource="http://purl.org/dc/dcmitype/StillImage" />
        <dc:title></dc:title>
      </cc:Work>
    </rdf:RDF>
  </metadata>
  <defs
     id="defs8" />
  <sodipodi:namedview
     pagecolor="#ffffff"
     bordercolor="#666666"
     borderopacity="1"
     objecttolerance="10"
     gridtolerance="10"
     guidetolerance="10"
     inkscape:pageopacity="0"
     inkscape:pageshadow="2"
     inkscape:window-width="1366"
     inkscape:window-height="719"
     id="namedview6"
     showgrid="false"
     inkscape:zoom="11.25"
     inkscape:cx="-4.7154634"
     inkscape:cy="11.644444"
     inkscape:window-x="0"
     inkscape:window-y="25"
     inkscape:window-maximized="1"
     inkscape:current-layer="svg4"
     showguides="true"
     inkscape:guide-bbox="true"
     inkscape:snap-global="false" />
  <g
     id="g827">
    <path
       inkscape:connector-curvature="0"
       id="path3842"
       d="m 0.611328,3.2773438 v 7.5058592 l 12.566406,12.996094 v 0.0293 l 10.179688,-5.644535 v -7.527343 l -10.179688,4.78125 v -0.06055 z"
       style="opacity:1;fill:#e6e6e6;fill-opacity:1;stroke:#e6e6e6;stroke-width:0.49357012px;stroke-linecap:butt;stroke-linejoin:round;stroke-opacity:1" />
    <path
       inkscape:connector-curvature="0"
       id="path3846"
       d="m 10.536882,0.40068782 c 0,0 -1.11234,0.17406611 -0.850586,0.80664058 C 9.948052,1.8399034 9.074104,2.1504777 7.87575,2.6252972 5.56358,3.5414402 4.496814,3.7045453 2.596453,2.9309613 1.909546,2.6513407 0.612078,3.2649456 0.612078,3.2649456 L 13.2195,15.407524 23.363054,10.652641 Z"
       style="opacity:1;fill:none;fill-opacity:1;stroke:#e6e6e6;stroke-width:0.49357012px;stroke-linecap:butt;stroke-linejoin:round;stroke-opacity:1" />
    <path
       inkscape:connector-curvature="0"
       id="path3848"
       d="M 5.08343,5.8101629 C 5.846882,6.5845214 6.863445,6.8915799 10.209468,5.5702204 13.634097,4.2178192 13.28509,4.0215027 12.521638,3.3453022 11.758185,2.6691017 11.41755,2.3483262 8.595311,3.3889272 4.690798,4.8285802 4.319979,5.0358034 5.08343,5.8101629 Z"
       style="opacity:1;fill:#e6e6e6;fill-opacity:1;stroke:none;stroke-width:0.49357012px;stroke-linecap:butt;stroke-linejoin:miter;stroke-opacity:1" />
    <use
       style="opacity:1;fill:#e6e6e6;fill-opacity:1;stroke:none"
       height="48"
       width="48"
       transform="translate(3.585868,3.0103391)"
       id="use3850"
       xlink:href="#path3848"
       y="0"
       x="0" />
    <use
       style="opacity:1;fill:#e6e6e6;fill-opacity:1;stroke:none"
       height="48"
       width="48"
       transform="rotate(-2.9470999,77.549062,-63.172028)"
       id="use3852"
       xlink:href="#use3850"
       y="0"
       x="0" />
  </g>
</svg>
